icons/svg/24x24/mail/outline.svg

<svg xmlns="http://www.w3.org/2000/svg" width="24" height="24" viewBox="0 0 24 24">
  <path fill-rule="evenodd" d="M17.1211,18.6121 C13.8971,19.1241 10.1001,19.1241 6.8781,18.6121 C6.3311,18.5251 5.8391,18.2891 5.4311,17.9551 L9.7031,13.5251 L12.0001,15.2481 L14.2971,13.5251 L18.5691,17.9551 C18.1611,18.2891 17.6691,18.5251 17.1211,18.6121 L17.1211,18.6121 Z M4.3681,16.1751 C4.3651,16.1601 4.3581,16.1441 4.3551,16.1281 C4.1201,14.7471 4.0001,13.3581 4.0001,11.9981 C4.0001,11.1311 4.0661,10.2511 4.1631,9.3701 L8.0901,12.3151 L4.3681,16.1751 Z M6.8011,5.3961 C10.0461,4.8721 13.8731,4.8691 17.1211,5.3831 C18.2191,5.5581 19.1111,6.3081 19.4891,7.3161 L19.4001,7.1981 L12.0001,12.7481 L4.6001,7.1981 L4.5071,7.3231 C4.8761,6.3161 5.7421,5.5681 6.8011,5.3961 L6.8011,5.3961 Z M15.9091,12.3151 L19.8371,9.3691 C19.9341,10.2501 20.0001,11.1301 20.0001,11.9981 C20.0001,13.3591 19.8801,14.7491 19.6441,16.1281 C19.6421,16.1441 19.6361,16.1601 19.6321,16.1751 L15.9091,12.3151 Z M21.6151,7.5321 C21.2531,5.4051 19.5731,3.7481 17.4351,3.4091 C13.9781,2.8601 9.9341,2.8631 6.4811,3.4221 C4.3921,3.7601 2.7461,5.4121 2.3841,7.5311 L2.3841,7.5321 C2.1291,9.0221 2.0001,10.5251 2.0001,11.9981 C2.0001,13.4701 2.1291,14.9731 2.3841,16.4651 C2.7481,18.5911 4.4281,20.2481 6.5641,20.5871 C8.2791,20.8591 10.1071,20.9981 12.0001,20.9981 C13.8921,20.9981 15.7211,20.8591 17.4351,20.5871 C19.5731,20.2481 21.2531,18.5911 21.6151,16.4651 C21.8711,14.9741 22.0001,13.4721 22.0001,11.9981 C22.0001,10.5231 21.8711,9.0211 21.6151,7.5321 L21.6151,7.5321 Z"/>
</svg>

<svg width="24" height="24" fill="none" xmlns="http://www.w3.org/2000/svg">
  <path fill-rule="evenodd" clip-rule="evenodd" d="M17.121 18.614c-3.22.512-7.02.512-10.243 0a3.034 3.034 0 01-1.447-.657l4.272-4.43L12 15.25l2.297-1.723 4.272 4.43c-.408.334-.9.57-1.448.657zM4.368 16.177c-.003-.015-.01-.03-.013-.047A24.694 24.694 0 014 12c0-.867.066-1.747.163-2.628l3.927 2.945-3.722 3.86zM6.802 5.398C8.418 5.135 10.23 5.002 12 5a32.59 32.59 0 015.121.386 3.038 3.038 0 012.311 1.8c-.01.006-.022.007-.032.014L12 12.75 4.6 7.2c-.01-.008-.023-.009-.034-.017.397-.933 1.226-1.622 2.236-1.785zm9.108 6.92l3.927-2.946c.097.881.163 1.761.163 2.628 0 1.36-.12 2.75-.356 4.13-.002.015-.009.031-.012.047l-3.722-3.86zm5.706-4.785a5.041 5.041 0 00-4.18-4.123A35.131 35.131 0 0012 3c-1.892 0-3.783.142-5.518.424-2.089.337-3.736 1.99-4.098 4.11A26.58 26.58 0 002 12c0 1.472.13 2.975.384 4.467a5.037 5.037 0 004.18 4.122A34.84 34.84 0 0012 21c1.892 0 3.721-.139 5.435-.41a5.037 5.037 0 004.181-4.124c.255-1.49.384-2.994.384-4.466s-.129-2.975-.384-4.467z" fill="#000"/>
</svg>
